!!!COM: L van Beethoven
!!!OTL: String Quartet
!!!OMV: op74_no10_mov3.mxl
**kern	**dynam
*I"Violin I	*
*I'Vln. I	*
*clefG2	*
*k[b-e-a-]	*
*c:	*
*M3/4	*
!LO:TX:a:B:t=Presto	!
*MM160	*
!LO:TX:t=[quarter]=160	!
8cc	f
!LO:TX:a:i:t=legieramente	!
8ccL	.
8ccJ	.
=1	=1
[8CCL [8C [8c 8e-	.
8CCJ] 8C] 8c_ 8d 8f	.
8cL] 8e- 8g	.
8fJ 8a- 8ee-	.
8e-L 8g 8ee-	.
8dJ 8f 8ee-	.
=2	=2
[8CCL [8C 8c [8e-	.
8CCJ] 8C] 8d 8e-_ 8f	.
8e-L] 8g	.
8fJ 8a- 8gg	.
8e-L 8g 8gg	.
8dJ 8f 8gg	.
=3	=3
[8CCL [8C 8c 8e- [8cc	.
8CC'J] 8C] 8d 8f 8cc]	.
[8CCL [8C 8e- 8g [8ccc	.
8CC'J] 8C] 8f 8a- 8ccc]	.
[8CCL [8C 8f#X 8an [8cc	.
8CC'J] 8C] 8f#X 8an 8cc]	.
=4	=4
[8GGL 8g [8bn	.
8GGJ] 8an 8b] 8cc	.
8bnL 8dd	.
8bnJ 8dd 8gg	p
8bnL 8dd 8gg	.
8bnJ 8cc 8gg	.
=5	=5
8ccL 8ee- 8aa-	.
8b-J 8dd 8gg	.
8anL 8cc 8ff#X	.
8bnJ 8dd 8gg	.
8gL 8bn 8dd	.
8gJ 8bn 8dd	.
=6	=6
8gL 8cc 8ee-	.
8dJ 8g 8bn	.
8e-L 8g 8cc	.
8BnJ 8d 8g	.
8cL 8e- 8a-	.
8cJ 8e- 8a-	.
=7	=7
8GGL [8Bn [8d [8g	.
8AA-J 8B] 8d] 8g]	.
8AA-L	.
8AA-J	.
8AA-L	.
8AA-J	.
=8	=8
4GG	.
8r	.
8AA- 8A-	f
8AA-L 8A-	.
8AA-J 8A-	.
=9	=9
4.GG 4.G	.
8AA- 8A-	.
8AA-L 8A-	.
8AA-J 8A-	.
=10	=10
4.GG 4.G	.
8AA- 8A-	.
8AA-L 8A-	.
8AA-J 8A-	.
=11	=11
4.GG 4.G	.
8AA- 8A-	.
8AA-L 8A-	.
8AA-J 8A-	.
=12	=12
4.GG 4.G	.
8DD-X 8D-X 8d-X	.
8DD-XL 8D-X 8d-	.
8DD-XJ 8D-X 8d-X	.
=13	=13
4.CC 4.C 4.c	.
8DD-X 8D-X 8d-X	.
8DD-XL 8D-X 8d-	.
8DD-XJ 8D-X 8d-X	.
=14	=14
4.CC 4.C 4.c	.
8DD-X 8D-X 8d-X	.
8DD-XL 8D-X 8d-	.
8DD-XJ 8D-X 8d-X	.
=15	=15
4.CC 4.C 4.c	.
8DD-X 8D-X 8d-X	.
8DD-XL 8D-X 8d-	.
8DD-XJ 8D-X 8d-X	.
=16	=16
4.CC 4.C 4.c	.
8C 8E- 8A- 8a-	.
8CL 8E- 8A- 8a-	.
8CJ 8E- 8A- 8a-	.
=17	=17
[8D-XL 8F [8A- [8f	.
8D-J] 8F 8A-] 8d-X 8f]	.
8FL 8A- 8f	.
8FJ 8A- 8a-	.
8FL 8A- 8dd-X	.
8FJ 8A- 8ff	.
=18	=18
[8D-XL 8F 8A- 8f [8aa-	.
8D-J] 8F 8A- 8d-X 8aa-]	.
8FL 8A- 8f	.
8FJ 8A- 8a-	.
8FL 8A- 8dd-X [8ff	.
8FJ 8A- 8ff]	.
=19	=19
[8GG-XL 8B- [8b- [8bb-	ff
8GG-J] 8G-X 8b-_ 8bb-_	.
8B-L 8b-_ 8bb-_	.
8e-J 8b-_ 8bb-_	.
8g-XL 8b-_ 8bb-_	.
8b-J_ 8bb-_	.
=20	=20
8GG-XL [8E- 8b-_ 8bb-]	.
8EE-J 8E-] 8b-] 8aa-	.
8GG-X'L [8B- 8gg-X	.
8BB-'J 8B-] 8ff	.
8E-'L [8g-X 8ee-	.
8E-'J 8G-X 8g-_ 8dd-X	.
=21	=21
[8AA-'L 8E- 8g-X] 8cc	.
8AA-'J] 8E- 8c 8b-	.
8E-'L 8c 8a-	.
8E-'J 8c 8g-X	.
8E-'L 8c 8f	.
8E-'J 8c 8e-	.
=22	=22
[8AA-L 8G-X 8d-X 8e-	.
8AA-J] 8G-X 8c 8e-	.
8G-XL 8e-	.
8G-XJ 8c 8e-	.
8G-XL 8A- 8e-	.
8G-XJ 8c 8e-	.
=23	=23
[4D-X [4A- 4d-X [4f	.
8D-L] 8A-] 8f]	.
8d-XJ 8f 8a-	.
8d-XL 8f 8a-	.
8d-XJ 8f 8a-	.
=24	=24
[4d-X [4f [4a-	.
8d-L] 8f] 8a-]	.
8D-XJ 8F 8A- 8a-	f
8D-XL 8F 8A- 8a-	.
8D-XJ 8F 8A- 8a-	.
=25	=25
[8D-XL 8F [8A- 8f	.
8D-J] 8F 8A-] 8d-X	.
8FL 8A- 8f	.
8FJ 8A- 8a-	.
8FL 8A- 8dd-X	.
8FJ 8A- 8ff	.
=26	=26
[8D-XL 8F 8A- 8f [8aa-	.
8D-J] 8F 8A- 8d-X 8aa-]	.
8FL 8A- 8f	.
8FJ 8A- 8a-	.
8FL 8A- 8dd-X [8ff	.
8FJ 8A- 8ff]	.
=27	=27
[8BB-L 8F 8Gn [8dd-X [8ddd-X	ff
8BB-J] 8G 8dd-_ 8ddd-_	.
8B-L 8dd-_ 8ddd-_	.
8d-XJ 8dd-_ 8ddd-_	.
8gnL 8dd-_ 8ddd-_	.
8b-J 8dd-_ 8ddd-_	.
=28	=28
8BB-L [8B- 8dd-X_ 8ddd-X]	.
8GGnJ 8B-] 8dd-] 8ccc	.
8BB-'L [8d-X 8bb-	.
8D-X'J 8d-] 8aa-	.
8G'L [8b- 8gg	.
8G'J 8B- 8b-_ 8ff	.
=29	=29
[8C'L 8G 8b-] 8een	.
8C'J] 8G 8B- 8dd-X	.
8G'L 8B- 8cc	.
8G'J 8B- 8b-	.
8G'L 8B- 8a-	.
8G'J 8B- 8gn	.
=30	=30
[8CL 8G 8B- 8f	.
8CJ] 8G 8B- 8en	.
8GL 8B- 8g	.
8GJ 8B- 8en	.
8GL 8B- 8c	.
8GJ 8B- 8en	.
=31	=31
[8FFL 8F 8A- [8f	.
8FFJ] 8G 8B- 8f_	.
8A-L 8c 8f]	.
8B-J 8d-X 8ff	.
8A-L 8c 8ff	.
8GJ 8B- 8ff	.
=32	=32
[8FFL 8F 8A- [8f	.
8FFJ] 8G 8B- 8f_	.
8A-L 8c 8f]	.
8B-J 8d-X 8aa-	.
8A-L 8c 8aa-	.
8GJ 8B- 8aa-	.
=33	=33
[8FFL 8F 8A- [8ff	.
8FFJ] 8G 8B- 8ff]	.
[8FFL 8F 8A- [8fff	.
8FFJ] 8G 8B- 8fff]	.
[8FFL 8A- 8c [8ff	.
8FFJ] 8F 8A- 8ff]	.
=34	=34
4ddn	.
4d 4fff	p
4bn 4ff	.
=35	=35
4Bn	.
4dn 4fff	.
4D 4ff	.
=36	=36
4Bn	.
4GG 4G 4f 4ddd	.
8AAnL [8G [8f [8dd	.
8BBnJ 8G] 8f] 8dd]	.
=37	=37
[8CCL [8C [8c 8e-	f
8CCJ] 8C] 8D 8c_ 8f	.
8E-L 8c] 8g	.
8FJ 8a- 8ee-	.
8E-L 8g 8ee-	.
8DJ 8f 8ee-	.
=38	=38
[8CCL [8C [8c 8e-	.
8CCJ] 8C] 8D 8c_ 8f	.
8E-L 8c] 8g	.
8FJ 8a- 8gg	.
8E-L 8g 8gg	.
8DJ 8f 8gg	.
=39	=39
[8CCL [8C 8e- [8cc	.
8CCJ] 8C] 8D 8f 8cc]	.
[8CCL [8C 8e- [8eee-	.
8CCJ] 8C] 8D 8f 8eee-]	.
[8CCL [8C 8E- 8g [8cc	.
8CCJ] 8C] 8e- 8cc]	.
=40	=40
4an	.
4An 4ccc	p
4f#X 4cc	.
=41	=41
4F#X	.
4An 4ccc	.
4AAn 4cc	.
=42	=42
4F#X	.
4DD 4c 4d 4aan	.
8EEnL [8c [8d [8an	.
8FF#XJ 8c] 8d] 8a]	.
=43	=43
4GG' 4B- 4d 4g [4gg	.
[8B-L 8gg_	.
8B-'J] 8g 8gg_	.
[8GGL 8g 8gg_	.
8GG'J] 8g 8gg_	.
=44	=44
4GG 4g 4gg_	.
[8BnL 8gg_	.
8BJ] 8g 8gg]	.
[8GGL 8g [8ff	.
8GGJ] 8g 8ff]	.
=45	=45
[8GGL [8g 8ff	.
8GGJ] 8g] 8ee-	.
[8cL	.
8cJ] 8g	.
[8GGL 8g [8dd	.
8GGJ] 8g 8dd]	.
=46	=46
[8GGL [8g 8ff	.
8GGJ] 8g] 8ee-	.
[8BnL	.
8BJ] 8g	.
[8GGL 8g [8dd	.
8GGJ] 8g 8dd]	.
=47	=47
[8GGL [8g 8ff	.
8GGJ] 8g] 8ee-	.
[8cL	.
8cJ] 8g	.
[8GGL 8g [8dd	.
8GGJ] 8g 8dd]	.
=48	=48
4GG 4g 4ee-	.
[8AnL	.
8AJ] 8g	.
[8GGL 8g [8ff#X	.
8GGJ] 8g 8ff#]	.
=49	=49
!LO:TX:a:i:t=cresc.	!
4GG [4g [4gg	.
4G 4g_ 4gg_	.
4GG 4g_ 4gg_	.
=50	=50
4GG 4g_ 4gg_	.
8GGL [8Bn 8g_ 8gg_	.
8FFJ 8B] 8g] 8gg]	.
8EE-L 8c 8an 8aan	.
8DDJ 8d 8bn 8bbn	.
=51	=51
4CC 4C [4cc [4ccc	.
[8e-L 8cc_ 8ccc_	.
8cJ 8e-] 8cc_ 8ccc_	.
[8CL 8c 8cc_ 8ccc_	.
8CJ] 8c 8cc_ 8ccc_	.
=52	=52
4C 4c 4cc_ 4ccc_	.
[8enL 8cc_ 8ccc_	.
8cJ 8e] 8cc] 8ccc]	.
[8CL 8c [8b- [8bb-	.
8CJ] 8c 8b-] 8bb-]	.
=53	=53
[8CL [8c 8b- 8bb-	.
8CJ] 8c] 8a- 8aa-	.
[8fL	.
8cJ 8f]	.
[8CL 8c [8g [8gg	.
8CJ] 8c 8g] 8gg]	.
=54	=54
[8CL [8c 8b- 8bb-	.
8CJ] 8c] 8a- 8aa-	.
[8enL	.
8cJ 8e]	.
[8CL 8c [8g [8gg	.
8CJ] 8c 8g] 8gg]	.
=55	=55
[8CL [8c 8b- 8bb-	.
8CJ] 8c] 8a- 8aa-	.
[8fL	.
8cJ 8f]	.
[8CL 8c [8g [8gg	.
8CJ] 8c 8g] 8gg]	.
=56	=56
4C 4c 4a- 4aa-	.
[8dL	.
8cJ 8d]	.
[8CL 8c [8bn [8bbn	.
8CJ] 8c 8b] 8bb]	.
=57	=57
!LO:TX:a:i:t=dim.	!
8cL 8e- [8cc [8ccc	.
8cJ 8e- 8cc_ 8ccc_	.
[8e-L [8g 8cc] 8ccc]	.
8e-J_ 8g_ 8cc 8ccc	.
8e-L_ 8g_ 8cc 8ccc	.
8e-J] 8g] 8cc 8bb-	.
=58	=58
8fL 8a- [8cc [8aa-	.
8fJ 8a- 8cc] 8aa-_	.
[8dL [8f 8b- 8aa-]	.
8dJ_ 8f_ 8b- 8bb-	.
8dL_ 8f_ 8b- 8bb-	.
8dJ] 8f] 8b- 8aa-	.
=59	=59
8e-L 8g [8b- [8gg	.
8e-J 8g 8b-] 8gg_	.
[8cL [8e- 8a- 8gg]	.
8cJ_ 8e-_ 8a- 8aa-	.
8cL_ 8e-_ 8a- 8aa-	.
8cJ] 8e-] 8a- 8gg	.
=60	=60
8dL 8f [8a- [8ff	.
8dJ 8f 8a-] 8ff_	.
[8BnL [8d 8g 8ff]	.
8BJ_ 8d_ 8g 8gg	.
8BL_ 8d_ 8g 8gg	.
8BJ] 8d] 8g 8ff	.
=61	=61
8cL 8e- [8g [8ee-	p
8CJ 8E- 8g] 8ee-_	.
[8E-L [8G 8c 8ee-]	.
8E-J_ 8G_ 8c 8cc	.
8E-L_ 8G_ 8c 8cc	.
8E-J] 8G] 8c 8b-	.
=62	=62
!LO:TX:a:i:t=piu p	!
8FL 8A- [8c [8a-	.
8FJ 8A- 8c] 8a-_	.
[8DL [8F 8B- 8a-]	.
8DJ_ 8F_ 8B- 8b-	.
8DL_ 8F_ 8B- 8b-	.
8DJ] 8F] 8B- 8a-	.
=63	=63
8E-L 8G [8B- [8g	.
8E-J 8G 8B-] 8g_	.
[8CL [8E- 8A- 8g]	.
8CJ_ 8E-_ 8A- 8a-	.
8CL_ 8E-_ 8A- 8a-	.
8CJ] 8E-] 8A- 8g	.
=64	=64
8DL 8F [8A- [8f	.
8DJ 8F 8A-] 8f_	.
[8BBnL [8D 8G 8f]	.
8BBJ_ 8D_ 8G 8g	.
8BBL_ 8D_ 8G 8g	.
8BBJ] 8D] 8G 8f	.
=65	=65
8CL 8E- [8G [8e-	.
8CJ 8E- 8G] 8e-_	.
[8AA-L [8C 8c 8e-]	.
8AA-J_ 8C_ 8c 8f	.
8AA-L_ 8C_ 8c 8e-	.
8AA-J] 8C] 8c 8f	.
=66	=66
8GGL 8D [8c [8g	.
8GGJ 8D 8c] 8g_	.
[8GGL [8D 8Bn 8g]	.
8GGJ_ 8D_ 8Bn 8g	.
8GGL_ 8D_ 8Bn 8g	.
8GGJ] 8D] 8Bn 8f	.
=67	=67
8CL 8E- [8G [8e-	.
8CJ 8E- 8G] 8e-_	.
[8AA-L [8C 8c 8e-]	.
8AA-J_ 8C_ 8c 8f	.
8AA-L_ 8C_ 8c 8e-	.
8AA-J] 8C] 8c 8f	.
=68	=68
8GGL 8D [8c [8g	.
8GGJ 8D 8c] 8g_	.
[8GGL [8D 8Bn 8g]	.
8GGJ_ 8D_ 8Bn 8g	.
8GGL_ 8D_ 8Bn 8g	.
8GGJ] 8D] 8Bn 8g	.
=69	=69
8GGL [8D [8Bn [8g	pp
8GGJ 8D] 8B] 8g]	.
8AA-L	.
8AA-J	.
8GGL	.
8GGJ	.
=70	=70
8FFL [8c [8a-	.
8FFJ 8c] 8a-]	.
8GGL	.
8GGJ	.
8FFL	.
8FFJ	.
=71	=71
8EE-L [8G [8c [8an	.
8EE-J 8G] 8c] 8a]	.
8FFL	.
8FFJ	.
8EE-L	.
8EE-J	.
=72	=72
8DDL [8G [8d [8bn	.
8DDJ 8G] 8d] 8b]	.
8EE-L	.
8EE-J	.
8DDL	.
8DDJ	.
=73	=73
!LO:TX:a:i:t=sempre pp	!
8CCL [8G [8e- [8cc	.
8GGJ 8G] 8e-] 8cc]	.
8GGL	.
8GGJ	.
8GGL 8G 8d 8bn	.
8GGJ 8G 8d 8b	.
=74	=74
8CCL [8G [8e- [8cc	.
8GGJ 8G] 8e-] 8cc]	.
8GGL	.
8GGJ	.
8GGL 8G 8d 8bn	.
8GGJ 8G 8d 8b	.
=75	=75
8CCL [8G [8e- [8cc	.
8GGJ 8G] 8e-] 8cc]	.
8GGL	.
8GGJ	.
8GGL 8G 8d 8bn	.
8GGJ 8G 8d 8b	.
=76	=76
8CCL [8G [8e- [8cc	.
8GGJ 8G] 8e-] 8cc]	.
8GGL	.
8GGJ	.
8GGL 8G 8d 8bn	.
8GGJ 8G 8d 8b	.
=77	=77
*k[]	*
*C:	*
4CC 4C 4G 4c 4en 4cc	.
!LO:TX:a:B:t=Piu presto quasi prestissimo	!
2r	.
=78	=78
4c	.
4d	.
4e	.
=79	=79
4d	.
4c	.
4B	.
=80	=80
4A	.
4G	.
4F	.
=81	=81
4E	.
4F	.
4G	.
=82	=82
4A	.
4B	.
4c	.
=83	=83
4B	.
4A	.
4G	.
=84	=84
4F	.
4E	.
4D	.
=85	=85
4C	.
4D	.
4E	.
=86	=86
4F [4c	.
4G 4c_	.
4A 4c_	.
=87	=87
4G 4c_	.
4F 4c_	.
4E 4c]	.
=88	=88
4D [4d	.
4C 4d_	.
4BB' 4d]	.
=89	=89
4AA [4e	.
4BB 4e_	.
4C' 4e]	.
=90	=90
4D [4d	.
4E 4d_	.
4F#X' 4d]	.
=91	=91
4G [4B	.
4F#X 4B_	.
4E' 4B]	.
=92	=92
4D [4d	.
4C 4d_	.
4BB' 4d]	.
=93	=93
4AA [4e	.
4BB 4e_	.
4C' 4e]	.
=94	=94
4D [4d	.
4E 4d_	.
4F#X' 4d]	.
=95	=95
4G 4B	.
2r	.
=96	=96
[4c 4ccc	ff
4c_ 4ddd	.
4c_ 4eee	.
=97	=97
4c_ [4d 4ddd	.
4c_ 4d_ 4ccc	.
4c] 4d_ 4bb	.
=98	=98
[4B 4d_ 4aa	.
4B_ 4d_ 4gg	.
4B] 4d_ 4ff	.
=99	=99
4d_ [4e 4ee	.
4d_ 4e_ 4ff	.
4d] 4e_ 4gg	.
=100	=100
[4c 4e_ 4aa	.
4c_ 4e_ 4bb	.
4c] 4e_ 4ccc	.
=101	=101
4e_ [4f 4bb	.
4e_ 4f_ 4aa	.
4e] 4f_ 4gg	.
=102	=102
[4d 4f_ 4ff	.
4d_ 4f_ 4ee	.
4d'] 4f_ 4dd	.
=103	=103
4f_ [4g 4cc	.
4f] 4g_ 4dd	.
4e' 4g] 4ee	.
=104	=104
[4AA [4c [4cc 4ff	.
4AA_ 4c_ 4cc_ 4gg	.
4AA_ 4c_ 4cc_ 4aa	.
=105	=105
4AA_ 4c_ 4cc_ 4ff#X	.
4AA_ 4c_ 4cc_ 4gg	.
4AA] 4c] 4cc] 4aa	.
=106	=106
[4GG [4B [4dd 4bb	.
4GG_ 4B_ 4dd_ 4ccc	.
4GG'] 4B] 4dd] 4ddd	.
=107	=107
[4CC [4C [4c [4ee 4aa	.
4CC_ 4C_ 4c_ 4ee_ 4eee	.
4CC'] 4C] 4c] 4ee] 4eee	.
=108	=108
[4DD [4D [4c [4dd 4ddd	.
4DD_ 4D_ 4c_ 4dd_ 4eee	.
4DD'] 4D] 4c] 4dd] 4fff#X	.
=109	=109
[4GG [4D [4B [4b 4ggg	.
4GG_ 4D_ 4B_ 4b_ 4fff#X	.
4GG'] 4D] 4B] 4b] 4eee	.
=110	=110
[4D [4G [4B [4dd 4ddd	.
4D_ 4G_ 4B_ 4dd_ 4ccc	.
4D'] 4G] 4B] 4dd] 4bb	.
=111	=111
[4C [4D [4c [4ee 4aa	.
4C_ 4D_ 4c_ 4ee_ 4eee	.
4C'] 4D] 4c] 4ee] 4eee	.
=112	=112
[4D [4c [4d [4dd 4ddd	.
4D_ 4c_ 4d_ 4dd_ 4eee	.
4D'] 4c] 4d] 4dd] 4fff#X	.
=113	=113
4GG 4D 4B 4d 4b 4ggg	.
2r	.
=114	=114
!LO:TX:a:i:t=sempre ff	!
[4GG [4G 4gg	.
4GG_ 4G_ 4aa	.
4GG_ 4G_ 4bb-X	.
=115	=115
4GG_ 4G_ 4aa	.
4GG_ 4G_ 4gg	.
4GG] 4G] 4ffn	.
=116	=116
[4AA [4A 4ee	.
4AA_ 4A_ 4dd	.
4AA'] 4A] 4cc	.
=117	=117
[4BB-X [4B-X 4b-X	.
4BB-_ 4B-_ 4a	.
4BB-'] 4B-] 4g	.
=118	=118
[4C#X [4c#X 4fn	.
4C#_ 4c#_ 4e	.
4C#'] 4c#] 4d	.
=119	=119
[4E 4c#X [4e	.
4E_ 4B-X 4e_	.
4E'] 4A 4e]	.
=120	=120
[4G [4g	.
4F 4G_ 4f 4g_	.
4E' 4G] 4e 4g]	.
=121	=121
4D [4c#X 4d [4cc#X	.
4C#X 4c#_ 4cc#_	.
4BB-X' 4B-X 4c#] 4cc#]	.
=122	=122
4AA 4A [4e [4ee	.
4GG 4G 4e_ 4ee_	.
4FF' 4F 4e] 4ee]	.
=123	=123
4EE 4E [4cc#X [4ee [4gg [4aa	.
4DD 4D 4cc#_ 4ee_ 4gg_ 4aa_	.
4CC#X' 4C#X 4cc#] 4ee] 4gg] 4aa]	.
=124	=124
4EE 4E [4cc#X [4ee [4gg [4aa	.
4AA 4A 4cc#_ 4ee_ 4gg_ 4aa_	.
4C#X' 4c#X 4cc#] 4ee] 4gg] 4aa]	.
=125	=125
4E' 4e 4g 4cc#X 4aa	.
2r	.
=126	=126
!LO:TX:a:i:t=sempre f	!
[4DD [4D 4ff	.
4DD_ 4D_ 4gg	.
4DD_ 4D_ 4aa	.
=127	=127
4DD_ 4D_ 4gg	.
4DD_ 4D_ 4ff	.
4DD] 4D] 4ee	.
=128	=128
[4EE [4E 4dd	.
4EE_ 4E_ 4ccn	.
4EE'] 4E] 4b	.
=129	=129
[4FF [4F 4a	.
4FF_ 4F_ 4g	.
4FF'] 4F] 4f	.
=130	=130
[4BBn [4Bn 4e	.
4BB_ 4B_ 4d	.
4BB'] 4B] 4cn	.
=131	=131
[4D 4Bn [4d	.
4D_ 4A 4d_	.
4D'] 4G 4d]	.
=132	=132
4F [4f [4ff	.
4E 4e 4f_ 4ff_	.
4D' 4d 4f] 4ff]	.
=133	=133
4Cn 4cn [4b [4bb	.
4BB 4B 4b_ 4bb_	.
4AA' 4A 4b] 4bb]	.
=134	=134
4GG 4G [4dd [4ddd	.
4FF 4F 4dd_ 4ddd_	.
4EE' 4E 4dd] 4ddd]	.
=135	=135
4DD 4D [4b [4dd [4ff [4gg	.
4CC 4C 4b_ 4dd_ 4ff_ 4gg_	.
4BB' 4D 4b] 4dd] 4ff] 4gg]	.
=136	=136
4D 4F [4b [4dd [4ff [4gg	.
4F 4B 4b_ 4dd_ 4ff_ 4gg_	.
4B' 4d 4b] 4dd] 4ff] 4gg]	.
=137	=137
4d 4f 4b 4dd 4ff 4gg	.
2r	.
=138	=138
4c [4cc	.
4d 4cc_ 4dd	.
4e 4cc_ 4ee	.
=139	=139
4d 4cc_ [4dd	.
4c 4cc_ 4dd_	.
4B 4b 4cc] 4dd_	.
=140	=140
4A 4a [4b 4dd_	.
4G 4g 4b_ 4dd_	.
4F' 4f 4b] 4dd_	.
=141	=141
4E 4e 4dd_ [4ee	.
4F 4f 4dd_ 4ee_	.
4G 4g 4dd] 4ee_	.
=142	=142
4A 4a [4cc 4ee_	.
4B 4b 4cc_ 4ee_	.
4c' 4cc] 4ee_	.
=143	=143
4B 4b 4ee_ [4ff	.
4A 4a 4ee_ 4ff_	.
4G 4g 4ee] 4ff_	.
=144	=144
4F 4f [4dd 4ff_	.
4E 4e 4dd_ 4ff_	.
4D' 4d 4dd] 4ff_	.
=145	=145
4C 4c 4ff_ [4gg	.
4D 4d 4ff_ 4gg_	.
4C 4c 4ff] 4gg_	.
=146	=146
4BB-X 4B-X [4ee 4gg_	.
4AA 4A 4ee] 4gg_	.
4GG 4G 4e 4gg]	.
=147	=147
4FF 4F [4cc [4aa	.
4GG 4G 4cc_ 4aa_	.
4FF' 4F 4cc] 4aa]	.
=148	=148
4EE 4E [4dd [4bb	.
4DD 4D 4dd_ 4bb_	.
4GG' 4G 4dd] 4bb]	.
=149	=149
4CC 4C [4ee [4ccc	.
4D 4d 4ee_ 4ccc_	.
4C' 4c 4ee] 4ccc]	.
=150	=150
4BB-X 4B-X [4ee [4gg [4ccc	.
4AA 4A 4ee_ 4gg_ 4ccc_	.
4GG' 4G 4ee] 4gg] 4ccc]	.
=151	=151
4FF 4F [4aa [4ccc	.
4GG 4G 4aa_ 4ccc_	.
4FF' 4F 4aa] 4ccc]	.
=152	=152
4EE 4E [4bb [4ddd	.
4DD 4D 4bb_ 4ddd_	.
4GG' 4G 4bb] 4ddd]	.
=153	=153
4CC 4C 4ccc 4eee	.
4cc 4ccc	.
4b 4bb	.
=154	=154
[4C 4cc 4ccc	.
4C_ 4dd 4ddd	.
4C_ 4ee 4eee	.
=155	=155
4C_ [4D 4dd 4ddd	.
4C_ 4D_ 4cc 4ccc	.
4C] 4D_ 4b 4bb	.
=156	=156
[4BB 4D_ 4a 4aa	.
4BB_ 4D_ 4g 4gg	.
4BB'] 4D_ 4f 4ff	.
=157	=157
4D_ [4E 4e 4ee	.
4D_ 4E_ 4f 4ff	.
4D] 4E_ 4g 4gg	.
=158	=158
[4C 4E_ 4a 4aa	.
4C_ 4E_ 4b 4bb	.
4C'] 4E_ 4cc 4ccc	.
=159	=159
4E_ [4F 4b 4bb	.
4E_ 4F_ 4a 4aa	.
4E] 4F_ 4g 4gg	.
=160	=160
[4D 4F_ 4f 4ff	.
4D_ 4F_ 4e 4ee	.
4D'] 4F_ 4d 4dd	.
=161	=161
4F_ [4G 4c 4cc	.
4F] 4G_ 4d 4dd	.
4E 4G_ 4e 4ee	.
=162	=162
4G_ [4A 4f 4ff	.
4G] 4A_ 4g 4gg	.
4F 4A] 4a 4aa	.
=163	=163
[4BB [4B 4g 4gg	.
4BB] 4B] 4f 4ff	.
4GG 4G 4e 4ee	.
=164	=164
[4D [4d 4dd	.
4D] 4c 4d] 4cc	.
4BB 4B 4b	.
=165	=165
[4f [4aa-X	sf
4f] 4aa-_	.
4d 4aa-_	.
=166	=166
2f 2b 2aa-X_	.
4d 4f 4aa-_	.
=167	=167
2b 2dd 2aa-X_	.
4f 4b 4aa-_	.
=168	=168
2dd 2ff 2aa-X_	.
4b 4dd 4aa-_	.
=169	=169
*k[b-e-a-]	*
*c:	*
4.dd; 4.ff 4.aa-] 4.bbn	.
!LO:TX:a:B:t=Tempo primo	!
8cc	f
8ccL	.
8ccJ	.
=170	=170
[8CCL [8C [8c 8e-	.
8CCJ] 8C] 8c_ 8d 8f	.
8cL] 8e- 8g	.
8fJ 8a- 8ee-	.
8e-L 8g 8ee-	.
8dJ 8f 8ee-	.
=171	=171
[8CCL [8C 8c [8e-	.
8CCJ] 8C] 8d 8e-_ 8f	.
8e-L] 8g	.
8fJ 8a- 8gg	.
8e-L 8g 8gg	.
8dJ 8f 8gg	.
=172	=172
[8CCL [8C 8c 8e- [8cc	.
8CC'J] 8C] 8d 8f 8cc]	.
[8CCL [8C 8e- 8g [8ccc	.
8CC'J] 8C] 8f 8a- 8ccc]	.
[8CCL [8C 8f#X 8an [8cc	.
8CC'J] 8C] 8f#X 8an 8cc]	.
=173	=173
[8GGL 8g [8bn	.
8GGJ] 8an 8b] 8cc	.
8bnL 8dd	.
8bnJ 8dd 8gg	p
8bnL 8dd 8gg	.
8bnJ 8dd 8gg	.
=174	=174
8ccL 8ee- 8aa-]	.
8b-J 8dd 8gg	.
8anL 8cc 8ff#X	.
8bnJ 8dd 8gg	.
8gL 8bn 8dd	.
8gJ 8bn 8dd	.
=175	=175
8gL 8cc 8ee-	.
8dJ 8g 8bn	.
8e-L 8g 8cc	.
8BnJ 8d 8g	.
8cL 8e- 8a-	.
8cJ 8e- 8a-	.
=176	=176
8GGL [8Bn [8d [8g	.
8AA-J 8B] 8d] 8g]	.
8AA-L	.
8AA-J	.
8AA-L	.
8AA-J	.
=177	=177
4GG	.
8r	.
8AA- 8A-	f
8AA-L 8A-	.
8AA-J 8A-	.
=178	=178
4.GG 4.G	.
8AA- 8A-	.
8AA-L 8A-	.
8AA-J 8A-	.
=179	=179
4.GG 4.G	.
8AA- 8A-	.
8AA-L 8A-	.
8AA-J 8A-	.
=180	=180
4.GG 4.G	.
8AA- 8A-	.
8AA-L 8A-	.
8AA-J 8A-	.
=181	=181
4.GG 4.G	.
8DD-X 8D-X 8d-X	.
8DD-XL 8D-X 8d-	.
8DD-XJ 8D-X 8d-X	.
=182	=182
4.CC 4.C 4.c	.
8DD-X 8D-X 8d-X	.
8DD-XL 8D-X 8d-	.
8DD-XJ 8D-X 8d-X	.
=183	=183
4.CC 4.C 4.c	.
8DD-X 8D-X 8d-X	.
8DD-XL 8D-X 8d-	.
8DD-XJ 8D-X 8d-X	.
=184	=184
4.CC 4.C 4.c	.
8DD-X 8D-X 8d-X	.
8DD-XL 8D-X 8d-	.
8DD-XJ 8D-X 8d-X	.
=185	=185
4.CC 4.C 4.c	.
8C 8E- 8A- 8a-	.
8CL 8E- 8A- 8a-	.
8CJ 8E- 8A- 8a-	.
=186	=186
[8D-XL 8F [8A- [8f	.
8D-J] 8F 8A-] 8d-X 8f]	.
8FL 8A- 8f	.
8FJ 8A- 8a-	.
8FL 8A- 8dd-X	.
8FJ 8A- 8ff	.
=187	=187
[8D-XL 8F 8A- 8f [8aa-	.
8D-J] 8F 8A- 8d-X 8aa-]	.
8FL 8A- 8f	.
8FJ 8A- 8a-	.
8FL 8A- 8dd-X [8ff	.
8FJ 8A- 8ff]	.
=188	=188
[8GG-XL 8B- [8b- [8bb-	ff
8GG-J] 8G-X 8b-_ 8bb-_	.
8B-L 8b-_ 8bb-_	.
8e-J 8b-_ 8bb-_	.
8g-XL 8b-_ 8bb-_	.
8b-J_ 8bb-_	.
=189	=189
8GG-XL [8E- 8b-_ 8bb-]	.
8EE-J 8E-] 8b-] 8aa-	.
8GG-X'L [8B- 8gg-X	.
8BB-'J 8B-] 8ff	.
8E-'L [8g-X 8ee-	.
8E-'J 8G-X 8g-_ 8dd-X	.
=190	=190
[8AA-'L 8E- 8g-X] 8cc	.
8AA-'J] 8E- 8c 8b-	.
8E-'L 8c 8a-	.
8E-'J 8c 8g-X	.
8E-'L 8c 8f	.
8E-'J 8c 8e-	.
=191	=191
[8AA-L 8G-X 8d-X 8e-	.
8AA-J] 8G-X 8c 8e-	.
8G-XL 8e-	.
8G-XJ 8c 8e-	.
8G-XL 8A- 8e-	.
8G-XJ 8c 8e-	.
=192	=192
[4D-X [4A- 4d-X [4f	.
8D-L] 8A-] 8f]	.
8d-XJ 8f 8a-	.
8d-XL 8f 8a-	.
8d-XJ 8f 8a-	.
=193	=193
[4d-X [4f [4a-	.
8d-L] 8f] 8a-]	.
8D-XJ 8F 8A- 8a-	f
8D-XL 8F 8A- 8a-	.
8D-XJ 8F 8A- 8a-	.
=194	=194
[8D-XL 8F [8A- 8f	.
8D-J] 8F 8A-] 8d-X	.
8FL 8A- 8f	.
8FJ 8A- 8a-	.
8FL 8A- 8dd-X	.
8FJ 8A- 8ff	.
=195	=195
[8D-XL 8F 8A- 8f [8aa-	.
8D-J] 8F 8A- 8d-X 8aa-]	.
8FL 8A- 8f	.
8FJ 8A- 8a-	.
8FL 8A- 8dd-X [8ff	.
8FJ 8A- 8ff]	.
=196	=196
[8BB-L 8F 8Gn [8dd-X [8ddd-X	ff
8BB-J] 8G 8dd-_ 8ddd-_	.
8B-L 8dd-_ 8ddd-_	.
8d-XJ 8dd-_ 8ddd-_	.
8gnL 8dd-_ 8ddd-_	.
8b-J 8dd-_ 8ddd-_	.
=197	=197
8BB-L [8B- 8dd-X_ 8ddd-X]	.
8GGnJ 8B-] 8dd-] 8ccc	.
8BB-'L [8d-X 8bb-	.
8D-X'J 8d-] 8aa-	.
8G'L [8b- 8gg	.
8G'J 8B- 8b-_ 8ff	.
=198	=198
[8C'L 8G 8b-] 8een	.
8C'J] 8G 8B- 8dd-X	.
8G'L 8B- 8cc	.
8G'J 8B- 8b-	.
8G'L 8B- 8a-	.
8G'J 8B- 8gn	.
=199	=199
[8CL 8G 8B- 8f	.
8CJ] 8G 8B- 8en	.
8GL 8B- 8g	.
8GJ 8B- 8en	.
8GL 8B- 8c	.
8GJ 8B- 8en	.
=200	=200
[8FFL 8F 8A- [8f	.
8FFJ] 8G 8B- 8f_	.
8A-L 8c 8f]	.
8B-J 8d-X 8ff	.
8A-L 8c 8ff	.
8GJ 8B- 8ff	.
=201	=201
[8FFL 8F 8A- [8f	.
8FFJ] 8G 8B- 8f_	.
8A-L 8c 8f]	.
8B-J 8d-X 8aa-	.
8A-L 8c 8aa-	.
8GJ 8B- 8aa-	.
=202	=202
[8FFL 8F 8A- [8ff	.
8FFJ] 8G 8B- 8ff]	.
[8FFL 8F 8A- [8fff	.
8FFJ] 8G 8B- 8fff]	.
[8FFL 8A- 8c [8ff	.
8FFJ] 8F 8A- 8ff]	.
=203	=203
4ddn	.
4d 4fff	p
4bn 4ff	.
=204	=204
4Bn	.
4dn 4fff	.
4D 4ff	.
=205	=205
4Bn	.
4GG 4G 4f 4ddd	.
8AAnL [8G [8f [8dd	.
8BBnJ 8G] 8f] 8dd]	.
=206	=206
[8CCL [8C [8c 8e-	f
8CCJ] 8C] 8D 8c_ 8f	.
8E-L 8c] 8g	.
8FJ 8a- 8ee-	.
8E-L 8g 8ee-	.
8DJ 8f 8ee-	.
=207	=207
[8CCL [8C [8c 8e-	.
8CCJ] 8C] 8D 8c_ 8f	.
8E-L 8c] 8g	.
8FJ 8a- 8gg	.
8E-L 8g 8gg	.
8DJ 8f 8gg	.
=208	=208
[8CCL [8C 8e- [8cc	.
8CCJ] 8C] 8D 8f 8cc]	.
[8CCL [8C 8e- [8eee-	.
8CCJ] 8C] 8D 8f 8eee-]	.
[8CCL [8C 8E- 8g [8cc	.
8CCJ] 8C] 8e- 8cc]	.
=209	=209
4an	.
4An 4ccc	p
4f#X 4cc	.
=210	=210
4F#X	.
4An 4ccc	.
4AAn 4cc	.
=211	=211
4F#X	.
4DD 4c 4d 4aan	.
8EEnL [8c [8d [8an	.
8FF#XJ 8c] 8d] 8a]	.
=212	=212
4GG' 4B- 4d 4g [4gg	.
[8B-L 8gg_	.
8B-'J] 8g 8gg_	.
[8GGL 8g 8gg_	.
8GG'J] 8g 8gg_	.
=213	=213
4GG 4g 4gg_	.
[8BnL 8gg_	.
8BJ] 8g 8gg]	.
[8GGL 8g [8ff	.
8GGJ] 8g 8ff]	.
=214	=214
[8GGL [8g 8ff	.
8GGJ] 8g] 8ee-	.
[8cL	.
8cJ] 8g	.
[8GGL 8g [8dd	.
8GGJ] 8g 8dd]	.
=215	=215
[8GGL [8g 8ff	.
8GGJ] 8g] 8ee-	.
[8BnL	.
8BJ] 8g	.
[8GGL 8g [8dd	.
8GGJ] 8g 8dd]	.
=216	=216
[8GGL [8g 8ff	.
8GGJ] 8g] 8ee-	.
[8cL	.
8cJ] 8g	.
[8GGL 8g [8dd	.
8GGJ] 8g 8dd]	.
=217	=217
4GG 4g 4ee-	.
[8AnL	.
8AJ] 8g	.
[8GGL 8g [8ff#X	.
8GGJ] 8g 8ff#]	.
=218	=218
!LO:TX:a:i:t=cresc.	!
4GG [4g [4gg	.
4G 4g_ 4gg_	.
4GG 4g_ 4gg_	.
=219	=219
4GG 4g_ 4gg_	.
8GGL [8Bn 8g_ 8gg_	.
8FFJ 8B] 8g] 8gg]	.
8EE-L 8c 8an 8aan	.
8DDJ 8d 8bn 8bbn	.
=220	=220
4CC 4C [4cc [4ccc	.
[8e-L 8cc_ 8ccc_	.
8cJ 8e-] 8cc_ 8ccc_	.
[8CL 8c 8cc_ 8ccc_	.
8CJ] 8c 8cc_ 8ccc_	.
=221	=221
4C 4c 4cc_ 4ccc_	.
[8enL 8cc_ 8ccc_	.
8cJ 8e] 8cc] 8ccc]	.
[8CL 8c [8b- [8bb-	.
8CJ] 8c 8b-] 8bb-]	.
=222	=222
[8CL [8c 8b- 8bb-	.
8CJ] 8c] 8a- 8aa-	.
[8fL	.
8cJ 8f]	.
[8CL 8c [8g [8gg	.
8CJ] 8c 8g] 8gg]	.
=223	=223
[8CL [8c 8b- 8bb-	.
8CJ] 8c] 8a- 8aa-	.
[8enL	.
8cJ 8e]	.
[8CL 8c [8g [8gg	.
8CJ] 8c 8g] 8gg]	.
=224	=224
[8CL [8c 8b- 8bb-	.
8CJ] 8c] 8a- 8aa-	.
[8fL	.
8cJ 8f]	.
[8CL 8c [8g [8gg	.
8CJ] 8c 8g] 8gg]	.
=225	=225
4C 4c 4a- 4aa-	.
[8dL	.
8cJ 8d]	.
[8CL 8c [8bn [8bbn	.
8CJ] 8c 8b] 8bb]	.
=226	=226
!LO:TX:a:i:t=dim.	!
8cL 8e- [8cc [8ccc	.
8cJ 8e- 8cc_ 8ccc_	.
[8e-L [8g 8cc] 8ccc]	.
8e-J_ 8g_ 8cc 8ccc	.
8e-L_ 8g_ 8cc 8ccc	.
8e-J] 8g] 8cc 8bb-	.
=227	=227
8fL 8a- [8cc [8aa-	.
8fJ 8a- 8cc] 8aa-_	.
[8dL [8f 8b- 8aa-]	.
8dJ_ 8f_ 8b- 8bb-	.
8dL_ 8f_ 8b- 8bb-	.
8dJ] 8f] 8b- 8aa-	.
=228	=228
8e-L 8g [8b- [8gg	.
8e-J 8g 8b-] 8gg_	.
[8cL [8e- 8a- 8gg]	.
8cJ_ 8e-_ 8a- 8aa-	.
8cL_ 8e-_ 8a- 8aa-	.
8cJ] 8e-] 8a- 8gg	.
=229	=229
8dL 8f [8a- [8ff	.
8dJ 8f 8a-] 8ff_	.
[8BnL [8d 8g 8ff]	.
8BJ_ 8d_ 8g 8gg	.
8BL_ 8d_ 8g 8gg	.
8BJ] 8d] 8g 8ff	.
=230	=230
8cL 8e- [8g [8ee-	p
8CJ 8E- 8g] 8ee-_	.
[8E-L [8G 8c 8ee-]	.
8E-J_ 8G_ 8c 8cc	.
8E-L_ 8G_ 8c 8cc	.
8E-J] 8G] 8c 8b-	.
=231	=231
!LO:TX:a:i:t=piu p	!
8FL 8A- [8c [8a-	.
8FJ 8A- 8c] 8a-_	.
[8DL [8F 8B- 8a-]	.
8DJ_ 8F_ 8B- 8b-	.
8DL_ 8F_ 8B- 8b-	.
8DJ] 8F] 8B- 8a-	.
=232	=232
8E-L 8G [8B- [8g	.
8E-J 8G 8B-] 8g_	.
[8CL [8E- 8A- 8g]	.
8CJ_ 8E-_ 8A- 8a-	.
8CL_ 8E-_ 8A- 8a-	.
8CJ] 8E-] 8A- 8g	.
=233	=233
8DL 8F [8A- [8f	.
8DJ 8F 8A-] 8f_	.
[8BBnL [8D 8G 8f]	.
8BBJ_ 8D_ 8G 8g	.
8BBL_ 8D_ 8G 8g	.
8BBJ] 8D] 8G 8f	.
=234	=234
8CL 8E- [8G [8e-	.
8CJ 8E- 8G] 8e-_	.
[8AA-L [8C 8c 8e-]	.
8AA-J_ 8C_ 8c 8f	.
8AA-L_ 8C_ 8c 8e-	.
8AA-J] 8C] 8c 8f	.
=235	=235
8GGL 8D [8c [8g	.
8GGJ 8D 8c] 8g_	.
[8GGL [8D 8Bn 8g]	.
8GGJ_ 8D_ 8Bn 8g	.
8GGL_ 8D_ 8Bn 8g	.
8GGJ] 8D] 8Bn 8f	.
=236	=236
8CL 8E- [8G [8e-	.
8CJ 8E- 8G] 8e-_	.
[8AA-L [8C 8c 8e-]	.
8AA-J_ 8C_ 8c 8f	.
8AA-L_ 8C_ 8c 8e-	.
8AA-J] 8C] 8c 8f	.
=237	=237
8GGL 8D [8c [8g	.
8GGJ 8D 8c] 8g_	.
[8GGL [8D 8Bn 8g]	.
8GGJ_ 8D_ 8Bn 8g	.
8GGL_ 8D_ 8Bn 8g	.
8GGJ] 8D] 8Bn 8g	.
=238	=238
8GGL [8D [8Bn [8g	pp
8GGJ 8D] 8B] 8g]	.
8AA-L	.
8AA-J	.
8GGL	.
8GGJ	.
=239	=239
8FFL [8c [8a-	.
8FFJ 8c] 8a-]	.
8GGL	.
8GGJ	.
8FFL	.
8FFJ	.
=240	=240
8EE-L [8G [8c [8an	.
8EE-J 8G] 8c] 8a]	.
8FFL	.
8FFJ	.
8EE-L	.
8EE-J	.
=241	=241
8DDL [8G [8d [8bn	.
8DDJ 8G] 8d] 8b]	.
8EE-L	.
8EE-J	.
8DDL	.
8DDJ	.
=242	=242
!LO:TX:a:i:t=sempre pp	!
8CCL [8G [8e- [8cc	.
8GGJ 8G] 8e-] 8cc]	.
8GGL	.
8GGJ	.
8GGL 8G 8d 8bn	.
8GGJ 8G 8d 8b	.
=243	=243
8CCL [8G [8e- [8cc	.
8GGJ 8G] 8e-] 8cc]	.
8GGL	.
8GGJ	.
8GGL 8G 8d 8bn	.
8GGJ 8G 8d 8b	.
=244	=244
8CCL [8G [8e- [8cc	.
8GGJ 8G] 8e-] 8cc]	.
8GGL	.
8GGJ	.
8GGL 8G 8d 8bn	.
8GGJ 8G 8d 8b	.
=245	=245
8CCL [8G [8e- [8cc	.
8GGJ 8G] 8e-] 8cc]	.
8GGL	.
8GGJ	.
8GGL 8G 8d 8bn	.
8GGJ 8G 8d 8b	.
=246	=246
*k[]	*
*C:	*
4CC 4C 4G 4c 4en 4cc	f
!LO:TX:a:i:t=Più presto quasi prestissimo	!
2r	.
=247	=247
4c	.
4d	.
4e	.
=248	=248
4d	.
4c	.
4B	.
=249	=249
4A	.
4G	.
4F	.
=250	=250
4E	.
4F	.
4G	.
=251	=251
4A	.
4B	.
4c	.
=252	=252
4B	.
4A	.
4G	.
=253	=253
4F	.
4E	.
4D	.
=254	=254
4C	.
4D	.
4E	.
=255	=255
4F [4c	.
4G 4c_	.
4A 4c_	.
=256	=256
4G 4c_	.
4F 4c_	.
4E 4c]	.
=257	=257
4D [4d	.
4C 4d_	.
4BB' 4d]	.
=258	=258
4AA [4e	.
4BB 4e_	.
4C' 4e]	.
=259	=259
4D [4d	.
4E 4d_	.
4F#X' 4d]	.
=260	=260
4G [4B	.
4F#X 4B_	.
4E' 4B]	.
=261	=261
4D [4d	.
4C 4d_	.
4BB' 4d]	.
=262	=262
4AA [4e	.
4BB 4e_	.
4C' 4e]	.
=263	=263
4D [4d	.
4E 4d_	.
4F#X' 4d]	.
=264	=264
4G 4B	.
2r	.
=265	=265
[4c 4ccc	ff
4c_ 4ddd	.
4c_ 4eee	.
=266	=266
4c_ [4d 4ddd	.
4c_ 4d_ 4ccc	.
4c] 4d_ 4bb	.
=267	=267
[4B 4d_ 4aa	.
4B_ 4d_ 4gg	.
4B] 4d_ 4ff	.
=268	=268
4d_ [4e 4ee	.
4d_ 4e_ 4ff	.
4d] 4e_ 4gg	.
=269	=269
[4c 4e_ 4aa	.
4c_ 4e_ 4bb	.
4c] 4e_ 4ccc	.
=270	=270
4e_ [4f 4bb	.
4e_ 4f_ 4aa	.
4e] 4f_ 4gg	.
=271	=271
[4d 4f_ 4ff	.
4d_ 4f_ 4ee	.
4d'] 4f_ 4dd	.
=272	=272
4f_ [4g 4cc	.
4f] 4g_ 4dd	.
4e' 4g] 4ee	.
=273	=273
[4AA [4c [4cc 4ff	.
4AA_ 4c_ 4cc_ 4gg	.
4AA_ 4c_ 4cc_ 4aa	.
=274	=274
4AA_ 4c_ 4cc_ 4ff#X	.
4AA_ 4c_ 4cc_ 4gg	.
4AA] 4c] 4cc] 4aa	.
=275	=275
[4GG [4B [4dd 4bb	.
4GG_ 4B_ 4dd_ 4ccc	.
4GG'] 4B] 4dd] 4ddd	.
=276	=276
[4CC [4C [4c [4ee 4aa	.
4CC_ 4C_ 4c_ 4ee_ 4eee	.
4CC'] 4C] 4c] 4ee] 4eee	.
=277	=277
[4DD [4D [4c [4dd 4ddd	.
4DD_ 4D_ 4c_ 4dd_ 4eee	.
4DD'] 4D] 4c] 4dd] 4fff#X	.
=278	=278
[4GG [4D [4B [4b 4ggg	.
4GG_ 4D_ 4B_ 4b_ 4fff#X	.
4GG'] 4D] 4B] 4b] 4eee	.
=279	=279
[4D [4G [4B [4dd 4ddd	.
4D_ 4G_ 4B_ 4dd_ 4ccc	.
4D'] 4G] 4B] 4dd] 4bb	.
=280	=280
[4C [4D [4c [4ee 4aa	.
4C_ 4D_ 4c_ 4ee_ 4eee	.
4C'] 4D] 4c] 4ee] 4eee	.
=281	=281
[4D [4c [4d [4dd 4ddd	.
4D_ 4c_ 4d_ 4dd_ 4eee	.
4D'] 4c] 4d] 4dd] 4fff#X	.
=282	=282
4GG 4D 4B 4d 4b 4ggg	.
2r	.
=283	=283
!LO:TX:a:i:t=sempre ff	!
[4GG [4G 4gg	.
4GG_ 4G_ 4aa	.
4GG_ 4G_ 4bb-X	.
=284	=284
4GG_ 4G_ 4aa	.
4GG_ 4G_ 4gg	.
4GG] 4G] 4ffn	.
=285	=285
[4AA [4A 4ee	.
4AA_ 4A_ 4dd	.
4AA'] 4A] 4cc	.
=286	=286
[4BB-X [4B-X 4b-X	.
4BB-_ 4B-_ 4a	.
4BB-'] 4B-] 4g	.
=287	=287
[4C#X [4c#X 4fn	.
4C#_ 4c#_ 4e	.
4C#'] 4c#] 4d	.
=288	=288
[4E 4c#X [4e	.
4E_ 4B-X 4e_	.
4E'] 4A 4e]	.
=289	=289
[4G [4g	.
4F 4G_ 4f 4g_	.
4E' 4G] 4e 4g]	.
=290	=290
4D [4c#X 4d [4cc#X	.
4C#X 4c#_ 4cc#_	.
4BB-X' 4B-X 4c#] 4cc#]	.
=291	=291
4AA 4A [4e [4ee	.
4GG 4G 4e_ 4ee_	.
4FF' 4F 4e] 4ee]	.
=292	=292
4EE 4E [4cc#X [4ee [4gg [4aa	.
4DD 4D 4cc#_ 4ee_ 4gg_ 4aa_	.
4CC#X' 4C#X 4cc#] 4ee] 4gg] 4aa]	.
=293	=293
4EE 4E [4cc#X [4ee [4gg [4aa	.
4AA 4A 4cc#_ 4ee_ 4gg_ 4aa_	.
4C#X' 4c#X 4cc#] 4ee] 4gg] 4aa]	.
=294	=294
4E' 4e 4g 4cc#X 4aa	.
2r	.
=295	=295
!LO:TX:a:i:t=sempre f	!
[4DD [4D 4ff	.
4DD_ 4D_ 4gg	.
4DD_ 4D_ 4aa	.
=296	=296
4DD_ 4D_ 4gg	.
4DD_ 4D_ 4ff	.
4DD] 4D] 4ee	.
=297	=297
[4EE [4E 4dd	.
4EE_ 4E_ 4ccn	.
4EE'] 4E] 4b	.
=298	=298
[4FF [4F 4a	.
4FF_ 4F_ 4g	.
4FF'] 4F] 4f	.
=299	=299
[4BBn [4Bn 4e	.
4BB_ 4B_ 4d	.
4BB'] 4B] 4cn	.
=300	=300
[4D 4Bn [4d	.
4D_ 4A 4d_	.
4D'] 4G 4d]	.
=301	=301
4F [4f [4ff	.
4E 4e 4f_ 4ff_	.
4D' 4d 4f] 4ff]	.
=302	=302
4Cn 4cn [4b [4bb	.
4BB 4B 4b_ 4bb_	.
4AA' 4A 4b] 4bb]	.
=303	=303
4GG 4G [4dd [4ddd	.
4FF 4F 4dd_ 4ddd_	.
4EE' 4E 4dd] 4ddd]	.
=304	=304
4DD 4D [4b [4dd [4ff [4gg	.
4CC 4C 4b_ 4dd_ 4ff_ 4gg_	.
4BB' 4D 4b] 4dd] 4ff] 4gg]	.
=305	=305
4D 4F [4b [4dd [4ff [4gg	.
4F 4B 4b_ 4dd_ 4ff_ 4gg_	.
4B' 4d 4b] 4dd] 4ff] 4gg]	.
=306	=306
4d 4f 4b 4dd 4ff 4gg	.
2r	.
=307	=307
4c [4cc	.
4d 4cc_ 4dd	.
4e 4cc_ 4ee	.
=308	=308
4d 4cc_ [4dd	.
4c 4cc_ 4dd_	.
4B 4b 4cc] 4dd_	.
=309	=309
4A 4a [4b 4dd_	.
4G 4g 4b_ 4dd_	.
4F' 4f 4b] 4dd_	.
=310	=310
4E 4e 4dd_ [4ee	.
4F 4f 4dd_ 4ee_	.
4G 4g 4dd] 4ee_	.
=311	=311
4A 4a [4cc 4ee_	.
4B 4b 4cc_ 4ee_	.
4c' 4cc] 4ee_	.
=312	=312
4B 4b 4ee_ [4ff	.
4A 4a 4ee_ 4ff_	.
4G 4g 4ee] 4ff_	.
=313	=313
4F 4f [4dd 4ff_	.
4E 4e 4dd_ 4ff_	.
4D' 4d 4dd] 4ff_	.
=314	=314
4C 4c 4ff_ [4gg	.
4D 4d 4ff_ 4gg_	.
4C 4c 4ff] 4gg_	.
=315	=315
4BB-X 4B-X [4ee 4gg_	.
4AA 4A 4ee] 4gg_	.
4GG 4G 4e 4gg]	.
=316	=316
4FF 4F [4cc [4aa	.
4GG 4G 4cc_ 4aa_	.
4FF' 4F 4cc] 4aa]	.
=317	=317
4EE 4E [4dd [4bb	.
4DD 4D 4dd_ 4bb_	.
4GG' 4G 4dd] 4bb]	.
=318	=318
4CC 4C [4ee [4ccc	.
4D 4d 4ee_ 4ccc_	.
4C' 4c 4ee] 4ccc]	.
=319	=319
4BB-X 4B-X [4ee [4gg [4ccc	.
4AA 4A 4ee_ 4gg_ 4ccc_	.
4GG' 4G 4ee] 4gg] 4ccc]	.
=320	=320
4FF 4F [4aa [4ccc	.
4GG 4G 4aa_ 4ccc_	.
4FF' 4F 4aa] 4ccc]	.
=321	=321
4EE 4E [4bb [4ddd	.
4DD 4D 4bb_ 4ddd_	.
4GG' 4G 4bb] 4ddd]	.
=322	=322
4CC 4C 4ccc 4eee	.
4cc 4ccc	.
4b 4bb	.
=323	=323
[4C 4cc 4ccc	.
4C_ 4dd 4ddd	.
4C_ 4ee 4eee	.
=324	=324
4C_ [4D 4dd 4ddd	.
4C_ 4D_ 4cc 4ccc	.
4C] 4D_ 4b 4bb	.
=325	=325
[4BB 4D_ 4a 4aa	.
4BB_ 4D_ 4g 4gg	.
4BB'] 4D_ 4f 4ff	.
=326	=326
4D_ [4E 4e 4ee	.
4D_ 4E_ 4f 4ff	.
4D] 4E_ 4g 4gg	.
=327	=327
[4C 4E_ 4a 4aa	.
4C_ 4E_ 4b 4bb	.
4C'] 4E_ 4cc 4ccc	.
=328	=328
4E_ [4F 4b 4bb	.
4E_ 4F_ 4a 4aa	.
4E] 4F_ 4g 4gg	.
=329	=329
[4D 4F_ 4f 4ff	.
4D_ 4F_ 4e 4ee	.
4D'] 4F_ 4d 4dd	.
=330	=330
4F_ [4G 4c 4cc	.
4F] 4G_ 4d 4dd	.
4E 4G_ 4e 4ee	.
=331	=331
4G_ [4A 4f 4ff	.
4G] 4A_ 4g 4gg	.
4F 4A] 4a 4aa	.
=332	=332
[4BB [4B 4g 4gg	.
4BB] 4B] 4f 4ff	.
4GG 4G 4e 4ee	.
=333	=333
[4D [4d 4dd	.
4D] 4c 4d] 4cc	.
4BB 4B 4b	.
=334	=334
[4f [4aa-X	sf
4f] 4aa-_	.
4d 4aa-_	.
=335	=335
2f 2b 2aa-X_	.
4d 4f 4aa-_	.
=336	=336
2b 2dd 2aa-X_	.
4f 4b 4aa-_	.
=337	=337
*k[b-e-a-]	*
*c:	*
4.dd; 4.ff 4.aa-] 4.bbn	.
!LO:TX:a:B:t=Tempo primo	!
8cc	.
8ccL	.
8ccJ	.
=338	=338
[8CCL [8C [8c 8e-	.
8CCJ] 8C] 8c_ 8d 8f	.
8cL] 8e- 8g	.
8fJ 8a- 8ee-	.
8e-L 8g 8ee-	.
8dJ 8f 8ee-	.
=339	=339
[8CCL [8C 8c [8e-	.
8CCJ] 8C] 8d 8e-_ 8f	.
8e-L] 8g	.
8fJ 8a- 8gg	.
8e-L 8g 8gg	.
8dJ 8f 8gg	.
=340	=340
[8CCL [8C 8c 8e- [8cc	.
8CC'J] 8C] 8d 8f 8cc]	.
[8CCL [8C 8e- 8g [8ccc	.
8CC'J] 8C] 8f 8a- 8ccc]	.
[8CCL [8C 8f#X 8an [8cc	.
8CC'J] 8C] 8f#X 8an 8cc]	.
=341	=341
[8GGL 8g [8bn	.
8GGJ] 8an 8b] 8cc	.
8bnL 8dd	.
8bnJ 8dd 8gg	p
8bnL 8dd 8gg	.
8bnJ 8dd 8gg	.
=342	=342
8ccL 8ee- 8aa-]	.
8b-J 8dd 8gg	.
8anL 8cc 8ff#X	.
8bnJ 8dd 8gg	.
8gL 8bn 8dd	.
8gJ 8bn 8dd	.
=343	=343
8gL 8cc 8ee-	.
8dJ 8g 8bn	.
8e-L 8g 8cc	.
8BnJ 8d 8g	.
8cL 8e- 8a-	.
8cJ 8e- 8a-	.
=344	=344
8GGL [8Bn [8d [8g	.
8AA-J 8B] 8d] 8g]	.
8AA-L	.
8AA-J	.
8AA-L	.
8AA-J	.
=345	=345
4GG	.
8r	.
8cc	p
8ccL	.
8ccJ	.
=346	=346
[8CCL [8C [8c 8e-	.
8CCJ] 8C] 8c_ 8d 8f	.
8cL] 8e- 8g	.
8fJ 8a- 8ee-	.
8e-L 8g 8ee-	.
8dJ 8f 8ee-	.
=347	=347
[8CCL [8C 8c [8e-	.
8CCJ] 8C] 8d 8e-_ 8f	.
8e-L] 8g	.
8fJ 8a- 8gg	.
8e-L 8g 8gg	.
8dJ 8f 8gg	.
=348	=348
[8CCL [8C 8c 8e- [8cc	.
8CC'J] 8C] 8d 8f 8cc]	.
[8CCL [8C 8e- 8g [8ccc	.
8CC'J] 8C] 8f 8a- 8ccc]	.
[8CCL [8C 8f#X 8an [8cc	.
8CC'J] 8C] 8f#X 8an 8cc]	.
=349	=349
[8GGL 8g [8bn	.
8GGJ] 8an 8b] 8cc	.
8bnL 8dd	.
8bnJ 8dd 8gg	p
8bnL 8dd 8gg	.
8bnJ 8dd 8gg	.
=350	=350
8ccL 8ee- 8aa-	.
8b-J 8dd 8gg	.
8anL 8cc 8ff#X	.
8bnJ 8dd 8gg	.
8gL 8bn 8dd	.
8gJ 8bn 8dd	.
=351	=351
8gL 8cc 8ee-	.
8dJ 8g 8bn	.
8e-L 8g 8cc	.
8BnJ 8d 8g	.
8cL 8e- 8a-	.
8cJ 8e- 8a-	.
=352	=352
8GGL [8Bn [8d [8g	.
8AA-J 8B] 8d] 8g]	.
8AA-L	.
8AA-J	.
8AA-L	.
8AA-J	.
=353	=353
4GG	.
8r	.
!LO:TX:a:i:t=sempre p	!
8AA- 8A-	.
8AA-L 8A-	.
8AA-J 8A-	.
=354	=354
4.GG 4.G	.
8AA- 8A-	.
8AA-L 8A-	.
8AA-J 8A-	.
=355	=355
4.GG 4.G	.
8AA- 8A-	.
8AA-L 8A-	.
8AA-J 8A-	.
=356	=356
4.GG 4.G	.
8AA- 8A-	.
8AA-L 8A-	.
8AA-J 8A-	.
=357	=357
4.GG 4.G	.
8DD-X 8D-X 8d-X	.
8DD-XL 8D-X 8d-	.
8DD-XJ 8D-X 8d-X	.
=358	=358
4.CC 4.C 4.c	.
8DD-X 8D-X 8d-X	.
8DD-XL 8D-X 8d-	.
8DD-XJ 8D-X 8d-X	.
=359	=359
4.CC 4.C 4.c	.
8DD-X 8D-X 8d-X	.
8DD-XL 8D-X 8d-	.
8DD-XJ 8D-X 8d-X	.
=360	=360
4.CC 4.C 4.c	.
8DD-X 8D-X 8d-X	.
8DD-XL 8D-X 8d-	.
8DD-XJ 8D-X 8d-X	.
=361	=361
4.CC 4.C 4.c	.
8C 8E- 8A- 8a-	.
8CL 8E- 8A- 8a-	.
8CJ 8E- 8A- 8a-	.
=362	=362
[8D-XL 8F [8A- [8f	.
8D-J] 8F 8A-] 8d-X 8f]	.
8FL 8A- 8f	.
8FJ 8A- 8a-	.
8FL 8A- 8dd-X	.
8FJ 8A- 8ff	.
=363	=363
[8D-XL 8F 8A- 8f [8aa-	.
8D-J] 8F 8A- 8d-X 8aa-]	.
8FL 8A- 8f	.
8FJ 8A- 8a-	.
8FL 8A- 8dd-X [8ff	.
8FJ 8A- 8ff]	.
=364	=364
[8GG-XL 8B- [8b- [8bb-	.
8GG-J] 8G-X 8b-_ 8bb-_	.
8B-L 8b-_ 8bb-_	.
8e-J 8b-_ 8bb-_	.
8g-XL 8b-_ 8bb-_	.
8b-J_ 8bb-_	.
=365	=365
8GG-XL [8E- 8b-_ 8bb-]	.
8EE-J 8E-] 8b-] 8aa-	.
8GG-X'L [8B- 8gg-X	.
8BB-'J 8B-] 8ff	.
8E-'L [8g-X 8ee-	.
8E-'J 8G-X 8g-_ 8dd-X	.
=366	=366
[8AA-'L 8E- 8g-X] 8cc	.
8AA-'J] 8E- 8c 8b-	.
8E-'L 8c 8a-	.
8E-'J 8c 8g-X	.
8E-'L 8c 8f	.
8E-'J 8c 8e-	.
=367	=367
[8AA-L 8G-X 8d-X 8e-	.
8AA-J] 8G-X 8c 8e-	.
8G-XL 8e-	.
8G-XJ 8c 8e-	.
8G-XL 8A- 8e-	.
8G-XJ 8c 8e-	.
=368	=368
[4D-X [4A- 4d-X [4f	.
8D-L] 8A-] 8f]	.
8d-XJ 8f 8a-	.
8d-XL 8f 8a-	.
8d-XJ 8f 8a-	.
=369	=369
[4d-X [4f [4a-	.
8d-L] 8f] 8a-]	.
8D-XJ 8F 8A- 8a-	f
8D-XL 8F 8A- 8a-	.
8D-XJ 8F 8A- 8a-	.
=370	=370
[8D-XL 8F [8A- 8f	.
8D-J] 8F 8A-] 8d-X	.
8FL 8A- 8f	.
8FJ 8A- 8a-	.
8FL 8A- 8dd-X	.
8FJ 8A- 8ff	.
=371	=371
[8D-XL 8F 8A- 8f [8aa-	.
8D-J] 8F 8A- 8d-X 8aa-]	.
8FL 8A- 8f	.
8FJ 8A- 8a-	.
8FL 8A- 8dd-X [8ff	.
8FJ 8A- 8ff]	.
=372	=372
!LO:TX:a:i:t=sempre p	!
[8BB-L 8F 8Gn [8dd-X [8ddd-X	.
8BB-J] 8G 8dd-_ 8ddd-_	.
8B-L 8dd-_ 8ddd-_	.
8d-XJ 8dd-_ 8ddd-_	.
8gnL 8dd-_ 8ddd-_	.
8b-J 8dd-_ 8ddd-_	.
=373	=373
8BB-L [8B- 8dd-X_ 8ddd-X]	.
8GGnJ 8B-] 8dd-] 8ccc	.
8BB-'L [8d-X 8bb-	.
8D-X'J 8d-] 8aa-	.
8G'L [8b- 8gg	.
8G'J 8B- 8b-_ 8ff	.
=374	=374
[8C'L 8G 8b-] 8een	.
8C'J] 8G 8B- 8dd-X	.
8G'L 8B- 8cc	.
8G'J 8B- 8b-	.
8G'L 8B- 8a-	.
8G'J 8B- 8gn	.
=375	=375
[8CL 8G 8B- 8f	.
8CJ] 8G 8B- 8en	.
8GL 8B- 8g	.
8GJ 8B- 8en	.
8GL 8B- 8c	.
8GJ 8B- 8en	.
=376	=376
[8FFL 8F 8A- [8f	.
8FFJ] 8G 8B- 8f_	.
8A-L 8c 8f]	.
8B-J 8d-X 8ff	.
8A-L 8c 8ff	.
8GJ 8B- 8ff	.
=377	=377
[8FFL 8F 8A- [8f	.
8FFJ] 8G 8B- 8f_	.
8A-L 8c 8f]	.
8B-J 8d-X 8aa-	.
8A-L 8c 8aa-	.
8GJ 8B- 8aa-	.
=378	=378
[8FFL 8F 8A- [8ff	.
8FFJ] 8G 8B- 8ff]	.
[8FFL 8F 8A- [8fff	.
8FFJ] 8G 8B- 8fff]	.
[8FFL 8A- 8c [8ff	.
8FFJ] 8F 8A- 8ff]	.
=379	=379
4ddn	.
4d 4fff	.
4bn 4ff	.
=380	=380
4Bn	.
4dn 4fff	.
4D 4ff	.
=381	=381
4Bn	.
4GG 4G 4f 4ddd	.
8AAnL [8G [8f [8dd	.
8BBnJ 8G] 8f] 8dd]	.
=382	=382
[8CCL [8C [8c 8e-	.
8CCJ] 8C] 8D 8c_ 8f	.
8E-L 8c] 8g	.
8FJ 8a- 8ee-	.
8E-L 8g 8ee-	.
8DJ 8f 8ee-	.
=383	=383
[8CCL [8C [8c 8e-	.
8CCJ] 8C] 8D 8c_ 8f	.
8E-L 8c] 8g	.
8FJ 8a- 8gg	.
8E-L 8g 8gg	.
8DJ 8f 8gg	.
=384	=384
[8CCL [8C 8e- [8cc	.
8CCJ] 8C] 8D 8f 8cc]	.
[8CCL [8C 8e- [8eee-	.
8CCJ] 8C] 8D 8f 8eee-]	.
[8CCL [8C 8E- 8g [8cc	.
8CCJ] 8C] 8e- 8cc]	.
=385	=385
4an	.
4An 4ccc	.
4f#X 4cc	.
=386	=386
4F#X	.
4An 4ccc	.
4AAn 4cc	.
=387	=387
4F#X	.
4DD 4c 4d 4aan	.
8EEnL [8c [8d [8an	.
8FF#XJ 8c] 8d] 8a]	.
=388	=388
4GG' 4B- 4d 4g [4gg	.
[8B-L 8gg_	.
8B-'J] 8g 8gg_	.
[8GGL 8g 8gg_	.
8GG'J] 8g 8gg_	.
=389	=389
4GG 4g 4gg_	.
[8BnL 8gg_	.
8BJ] 8g 8gg]	.
[8GGL 8g [8ff	.
8GGJ] 8g 8ff]	.
=390	=390
[8GGL [8g 8ff	.
8GGJ] 8g] 8ee-	.
[8cL	.
8cJ] 8g	.
[8GGL 8g [8dd	.
8GGJ] 8g 8dd]	.
=391	=391
[8GGL [8g 8ff	.
8GGJ] 8g] 8ee-	.
[8BnL	.
8BJ] 8g	.
[8GGL 8g [8dd	.
8GGJ] 8g 8dd]	.
=392	=392
[8GGL [8g 8ff	.
8GGJ] 8g] 8ee-	.
[8cL	.
8cJ] 8g	.
[8GGL 8g [8dd	.
8GGJ] 8g 8dd]	.
=393	=393
4GG 4g 4ee-	.
[8AnL	.
8AJ] 8g	.
[8GGL 8g [8ff#X	.
8GGJ] 8g 8ff#]	.
=394	=394
4GG [4g [4gg	.
4G 4g_ 4gg_	.
4GG 4g_ 4gg_	.
=395	=395
4GG 4g_ 4gg_	.
8GGL [8Bn 8g_ 8gg_	.
8FFJ 8B] 8g] 8gg]	.
8EE-L 8c 8an 8aan	.
8DDJ 8d 8bn 8bbn	.
=396	=396
!LO:TX:a:i:t=piu p	!
4CC 4C [4cc [4ccc	.
[8e-L 8cc_ 8ccc_	.
8cJ 8e-] 8cc_ 8ccc_	.
[8CL 8c 8cc_ 8ccc_	.
8CJ] 8c 8cc_ 8ccc_	.
=397	=397
4C 4c 4cc_ 4ccc_	.
[8enL 8cc_ 8ccc_	.
8cJ 8e] 8cc] 8ccc]	.
[8CL 8c [8b- [8bb-	.
8CJ] 8c 8b-] 8bb-]	.
=398	=398
[8CL [8c 8b- 8bb-	.
8CJ] 8c] 8a- 8aa-	.
[8fL	.
8cJ 8f]	.
[8CL 8c [8g [8gg	.
8CJ] 8c 8g] 8gg]	.
=399	=399
[8CL [8c 8b- 8bb-	.
8CJ] 8c] 8a- 8aa-	.
[8enL	.
8cJ 8e]	.
[8CL 8c [8g [8gg	.
8CJ] 8c 8g] 8gg]	.
=400	=400
[8CL [8c 8b- 8bb-	.
8CJ] 8c] 8a- 8aa-	.
[8fL	.
8cJ 8f]	.
[8CL 8c [8g [8gg	.
8CJ] 8c 8g] 8gg]	.
=401	=401
4C 4c 4a- 4aa-	.
[8dL	.
8cJ 8d]	.
[8CL 8c [8bn [8bbn	.
8CJ] 8c 8b] 8bb]	.
=402	=402
!LO:TX:a:i:t=sempre piu p	!
8cL 8e- [8cc [8ccc	.
8cJ 8e- 8cc_ 8ccc_	.
[8e-L [8g 8cc] 8ccc]	.
8e-J_ 8g_ 8cc 8ccc	.
8e-L_ 8g_ 8cc 8ccc	.
8e-J] 8g] 8cc 8bb-	.
=403	=403
8fL 8a- [8cc [8aa-	.
8fJ 8a- 8cc] 8aa-_	.
[8dL [8f 8b- 8aa-]	.
8dJ_ 8f_ 8b- 8bb-	.
8dL_ 8f_ 8b- 8bb-	.
8dJ] 8f] 8b- 8aa-	.
=404	=404
8e-L 8g [8b- [8gg	.
8e-J 8g 8b-] 8gg_	.
[8cL [8e- 8a- 8gg]	.
8cJ_ 8e-_ 8a- 8aa-	.
8cL_ 8e-_ 8a- 8aa-	.
8cJ] 8e-] 8a- 8gg	.
=405	=405
8dL 8f [8a- [8ff	.
8dJ 8f 8a-] 8ff_	.
[8BnL [8d 8g 8ff]	.
8BJ_ 8d_ 8g 8gg	.
8BL_ 8d_ 8g 8gg	.
8BJ] 8d] 8g 8ff	.
=406	=406
8cL 8e- [8g [8ee-	.
8CJ 8E- 8g] 8ee-_	.
[8E-L [8G 8c 8ee-]	.
8E-J_ 8G_ 8c 8cc	.
8E-L_ 8G_ 8c 8cc	.
8E-J] 8G] 8c 8b-	.
=407	=407
8FL 8A- [8c [8a-	.
8FJ 8A- 8c] 8a-_	.
[8DL [8F 8B- 8a-]	.
8DJ_ 8F_ 8B- 8b-	.
8DL_ 8F_ 8B- 8b-	.
8DJ] 8F] 8B- 8a-	.
=408	=408
8E-L 8G [8B- [8g	.
8E-J 8G 8B-] 8g_	.
[8CL [8E- 8A- 8g]	.
8CJ_ 8E-_ 8A- 8a-	.
8CL_ 8E-_ 8A- 8a-	.
8CJ] 8E-] 8A- 8g	.
=409	=409
8DL 8F [8A- [8f	.
8DJ 8F 8A-] 8f_	.
[8BBnL [8D 8G 8f]	.
8BBJ_ 8D_ 8G 8g	.
8BBL_ 8D_ 8G 8g	.
8BBJ] 8D] 8G 8f	.
=410	=410
8CL 8E- [8G [8e-	.
8CJ 8E- 8G] 8e-_	.
[8AA-L [8C 8c 8e-]	.
8AA-J_ 8C_ 8c 8f	.
8AA-L_ 8C_ 8c 8e-	.
8AA-J] 8C] 8c 8f	.
=411	=411
8GGL 8D [8c [8g	.
8GGJ 8D 8c] 8g_	.
[8GGL [8D 8Bn 8g]	.
8GGJ_ 8D_ 8Bn 8g	.
8GGL_ 8D_ 8Bn 8g	.
8GGJ] 8D] 8Bn 8f	.
=412	=412
8CL 8E- [8G [8e-	.
8CJ 8E- 8G] 8e-_	.
[8AA-L [8C 8c 8e-]	.
8AA-J_ 8C_ 8c 8f	.
8AA-L_ 8C_ 8c 8e-	.
8AA-J] 8C] 8c 8f	.
=413	=413
8GGL 8D [8c [8g	.
8GGJ 8D 8c] 8g_	.
[8GGL [8D 8Bn 8g]	.
8GGJ_ 8D_ 8Bn 8g	.
8GGL_ 8D_ 8Bn 8g	.
8GGJ] 8D] 8Bn 8g	.
=414	=414
8GGL [8D [8Bn [8g	ppp
8GGJ 8D] 8B] 8g]	.
8AA-L	.
8AA-J	.
8GGL	.
8GGJ	.
=415	=415
8FFL [8c [8a-	.
8FFJ 8c] 8a-]	.
8GGL	.
8GGJ	.
8FFL	.
8FFJ	.
=416	=416
8EE-L [8G [8c [8an	.
8EE-J 8G] 8c] 8a]	.
8FFL	.
8FFJ	.
8EE-L	.
8EE-J	.
=417	=417
8DDL [8G [8d [8bn	.
8DDJ 8G] 8d] 8b]	.
8EE-L	.
8EE-J	.
8DDL	.
8DDJ	.
=418	=418
8CCL [8G [8e- [8cc	.
8GGJ 8G] 8e-] 8cc]	.
8GGL	.
8GGJ	.
8GGL 8G 8d 8bn	.
8GGJ 8G 8d 8b	.
=419	=419
8CCL [8G [8e- [8cc	.
8GGJ 8G] 8e-] 8cc]	.
8GGL	.
8GGJ	.
8GGL 8G 8d 8bn	.
8GGJ 8G 8d 8b	.
=420	=420
8CCL [8G [8e- [8cc	.
8GGJ 8G] 8e-] 8cc]	.
8GGL	.
8GGJ	.
8GGL 8G 8d 8bn	.
8GGJ 8G 8d 8b	.
=421	=421
8CCL [8G [8e- [8cc	.
8GGJ 8G] 8e-] 8cc]	.
8GGL	.
8GGJ	.
8GGL 8G 8d 8bn	.
8GGJ 8G 8d 8b	.
=422	=422
!LO:TX:a:i:t=poco cresc.	!
8CCL [8C [8e- [8cc	.
8GGJ 8C] 8e-_ 8cc_	.
8GGL [8A- 8e-_ 8cc_	.
8GGJ 8A-_ 8e-_ 8cc_	.
8GGL 8A-_ 8e-_ 8cc_	.
8GGJ 8A-_ 8e-_ 8cc_	.
=423	=423
8AA-L 8A-_ 8e-_ 8cc_	.
8AA-J 8A-_ 8e-_ 8cc_	.
8AA-L 8A-_ 8e-_ 8cc_	.
8AA-J 8A-_ 8e-_ 8cc_	.
8AA-L 8A-_ 8e-_ 8cc_	.
8AA-J 8A-_ 8e-_ 8cc_	.
=424	=424
!LO:TX:a:i:t=dim.	!
8AA-L 8A-_ 8e-_ 8cc_	.
8AA-J 8A-_ 8e-_ 8cc_	.
8AA-L 8A-_ 8e-_ 8cc_	.
8AA-J 8A-_ 8e-_ 8cc_	.
8AA-L 8A-_ 8e-_ 8cc_	.
8AA-J 8A-_ 8e-_ 8cc_	.
=425	=425
8AA-L 8A-_ 8e-_ 8cc_	.
8AA-J 8A-_ 8e-_ 8cc_	.
8AA-L 8A-_ 8e-_ 8cc_	.
8AA-J 8A-_ 8e-_ 8cc_	.
8AA-L 8A-_ 8e-_ 8cc_	.
8AA-J 8A-_ 8e-_ 8cc_	.
=426	=426
8AA-L 8A-_ 8e-_ 8cc_	.
8AA-J 8A-] 8e-] 8cc]	.
8BB-L	.
8BB-J	.
8AA-L	.
8AA-J	.
=427	=427
!LO:TX:a:i:t=sempre pp	!
8GG-XL [8c [8a-	.
8GG-XJ 8c] 8a-]	.
8AA-L	.
8AA-J	.
8GG-XL	.
8GG-J	.
=428	=428
8FFL [8A- [8d-X [8b-	.
8FFJ 8A-] 8d-] 8b-]	.
8GG-XL	.
8GG-J	.
8FFL	.
8FFJ	.
=429	=429
8EE-L [8A- [8e- [8cc	.
8EE-J 8A-] 8e-] 8cc]	.
8FFL	.
8FFJ	.
8EE-L	.
8EE-J	.
=430	=430
8DD-XL [8A- [8e- [8dd-X	.
8AA-J 8A-] 8e-] 8dd-]	.
8AA-L	.
8AA-J 8A- 8e- 8cc	.
8AA-L 8A- 8e- 8cc	.
8AA-J 8A- 8e- 8cc	.
=431	=431
8DD-XL [8A- [8f [8dd-X	.
8AA-J 8A-] 8f] 8dd-]	.
8AA-L	.
8AA-J 8A- 8e- 8cc	.
8AA-L 8A- 8e- 8cc	.
8AA-J 8A- 8e- 8cc	.
=432	=432
8DD-XL [8A- [8f [8dd-X	.
8AA-J 8A-] 8f] 8dd-]	.
8AA-L	.
8AA-J 8A- 8e- 8cc	.
8AA-L 8A- 8e- 8cc	.
8AA-J 8A- 8e- 8cc	.
=433	=433
8DD-XL [8A- [8f [8dd-X	.
8AA-J 8A-] 8f] 8dd-]	.
8AA-L	.
8AA-J 8A- 8e- 8cc	.
8AA-L 8A- 8e- 8cc	.
8AA-J 8A- 8e- 8cc	.
=434	=434
!LO:TX:a:i:t=poco cresc.	!
8DD-XL [8D-X [8f [8dd-X	.
8BB-J 8D-] 8f_ 8dd-_	.
8BB-L [8B- 8f_ 8dd-_	.
8BB-J 8B-_ 8f_ 8dd-_	.
8BB-L 8B-_ 8f_ 8dd-_	.
8BB-J 8B-_ 8f_ 8dd-_	.
=435	=435
8BB-L 8B-_ 8f_ 8dd-X_	.
8BB-J 8B-_ 8f_ 8dd-_	.
8BB-L 8B-_ 8f_ 8dd-_	.
8BB-J 8B-_ 8f_ 8dd-_	.
8BB-L 8B-_ 8f_ 8dd-_	.
8BB-J 8B-_ 8f_ 8dd-]	.
=436	=436
!LO:TX:a:i:t=dim.	!
8BB-L 8B-_ 8f_ [8ddn	.
8BB-J 8B-_ 8f_ 8dd_	.
8BB-L 8B-_ 8f_ 8dd_	.
8BB-J 8B-_ 8f_ 8dd_	.
8BB-L 8B-_ 8f_ 8dd_	.
8BB-J 8B-_ 8f_ 8dd_	.
=437	=437
8BB-L 8B-_ 8f_ 8dd_	.
8BB-J 8B-_ 8f_ 8dd_	.
8BB-L 8B-_ 8f_ 8dd_	.
8BB-J 8B-_ 8f_ 8dd_	.
8BB-L 8B-_ 8f_ 8dd_	.
8BB-J 8B-] 8f] 8dd]	.
=438	=438
8BB-L [8B- [8f [8dd	pp
8BB-J 8B-] 8f_ 8dd_	.
8C-XL 8f_ 8dd_	.
8C-XJ 8f_ 8dd_	.
8BB-L 8f_ 8dd_	.
8BB-J 8f] 8dd]	.
=439	=439
8AA-L [8g-X [8ee-	.
8AA-J 8g-_ 8ee-_	.
8BB-L 8g-_ 8ee-_	.
8BB-J 8g-_ 8ee-_	.
8AA-L 8g-_ 8ee-_	.
8AA-J 8g-_ 8ee-_	.
=440	=440
!LO:TX:a:i:t=poco cresc.	!
8GG-XL [8c-X 8g-X_ 8ee-_	.
8GG-XJ 8c-_ 8g-_ 8ee-_	.
8AA-L 8c-_ 8g-_ 8ee-_	.
8AA-J 8c-_ 8g-_ 8ee-_	.
8GG-XL 8c-_ 8g-_ 8ee-_	.
8GG-XJ 8c-] 8g-_ 8ee-_	.
=441	=441
8AA-L 8g-X_ [8cc-X 8ee-_	.
8AA-J 8g-_ 8cc-_ 8ee-_	.
8BB-L 8g-_ 8cc-_ 8ee-_	.
8BB-J 8g-_ 8cc-_ 8ee-_	.
8AA-L 8g-_ 8cc-_ 8ee-_	.
8AA-J 8g-] 8cc-] 8ee-]	.
=442	=442
8BB-L [8f [8b- [8dd	pp
8BB-J 8f_ 8b-] 8dd_	.
8C-XL 8f_ 8dd_	.
8C-XJ 8f_ 8dd_	.
8BB-L 8f_ 8dd_	.
8BB-J 8f] 8dd]	.
=443	=443
8AA-L [8g-X [8ee-	.
8AA-J 8g-_ 8ee-_	.
8BB-L 8g-_ 8ee-_	.
8BB-J 8g-_ 8ee-_	.
8AA-L 8g-_ 8ee-_	.
8AA-J 8g-_ 8ee-_	.
=444	=444
!LO:TX:a:i:t=poco cresc.	!
8GG-XL [8c-X 8g-X_ 8ee-_	.
8GG-XJ 8c-_ 8g-_ 8ee-_	.
8AA-L 8c-_ 8g-_ 8ee-_	.
8AA-J 8c-_ 8g-_ 8ee-_	.
8GG-XL 8c-_ 8g-_ 8ee-_	.
8GG-XJ 8c-] 8g-_ 8ee-_	.
=445	=445
8AA-L 8g-X_ [8cc-X 8ee-_	.
8AA-J 8g-_ 8cc-_ 8ee-_	.
8BB-L 8g-_ 8cc-_ 8ee-_	.
8BB-J 8g-_ 8cc-_ 8ee-_	.
8AA-L 8g-_ 8cc-_ 8ee-_	.
8AA-J 8g-] 8cc-] 8ee-]	.
=446	=446
8BB-L [8f [8b- [8dd	pp
8BB-J 8f] 8b-] 8dd]	.
8C-XL	.
8C-J	.
8BB-L	.
8BB-J	.
=447	=447
8CL	.
8CJ	.
8DL	.
8DJ	.
8CL	.
8CJ	.
=448	=448
[8DL 8b-	.
8DJ] 8b-	.
8ccL	.
8ccJ	.
8b-L	.
8b-J	.
=449	=449
8ccL	.
8ccJ	.
8ddL	.
8ddJ	.
8ccL	.
8ccJ	.
=450	=450
8DL [8dd	.
8DJ 8dd]	.
8E-L	.
8E-J	.
8DL	.
8DJ	.
=451	=451
8E-L	.
8E-J	.
8FL	.
8FJ	.
8E-L	.
8E-J	.
=452	=452
[8FL 8dd	.
8FJ] 8dd	.
8ee-L	.
8ee-J	.
8ddL	.
8ddJ	.
=453	=453
8ee-L	.
8ee-J	.
8ffL	.
8ffJ	.
8ee-L	.
8ee-J	.
=454	=454
8ddL 8ff	.
8ddJ 8ff	.
8ee-L 8gg	.
8ee-J 8gg	.
8ddL 8ff	.
8ddJ 8ff	.
=455	=455
8ee-L 8gg	.
8ee-J 8gg	.
8ffL 8aa-	.
8ffJ 8aa-	.
8ee-L 8gg	.
8ee-J 8gg	.
=456	=456
8ffL 8aa-	.
8ffJ 8aa-	.
8ggL 8bb-	.
8ggJ 8bb-	.
8ffL 8aa-	.
8ffJ 8aa-	.
=457	=457
8ffL 8aa-	.
8ffJ 8aa-	.
8ggL 8bb-	.
8ggJ 8bb-	.
8ffL 8aa-	.
8ffJ 8aa-	.
=458	=458
8fL 8a- [8ff [8aa-	.
8fJ 8a- 8ff] 8aa-]	.
8gL 8b-	.
8gJ 8b-	.
8fL 8a-	.
8fJ 8a-	.
=459	=459
8fL 8a-	.
8fJ 8a-	.
8gL 8b-	.
8gJ 8b-	.
8fL 8a-	.
8fJ 8a-	.
=460	=460
[8fL [8a-	.
8fJ] 8a-]	.
8gL 8b-	.
8gJ 8b-	.
8fL 8a-	.
8fJ 8a-	.
=461	=461
8fL 8a-	.
8fJ 8a-	.
8gL 8b-	.
8gJ 8b-	.
8fL 8a-	.
8fJ 8a-	.
=462	=462
8FL 8A- [8f [8a-	.
8FJ 8A- 8f] 8a-]	.
8GL 8B-	.
8GJ 8B-	.
8FL 8A-	.
8FJ 8A-	.
=463	=463
8FL 8A-	.
8FJ 8A-	.
8GL 8B-	.
8GJ 8B-	.
8FL 8A-	.
8FJ 8A-	.
=464	=464
8DL 8F 8A-	.
8DJ 8F 8A-	.
8C#XL 8G 8B-	.
8C#XJ 8G 8B-	.
8DL 8F 8A-	.
8DJ 8F 8A-	.
=465	=465
8DDL 8F 8A- 8B-	.
8DDJ 8F 8A- 8B-	.
8CCnL 8G 8B-	.
8CCJ 8G 8B-	.
8DDL 8F 8A- 8B-	.
8DDJ 8F 8A- 8B-	.
=466	=466
2.DD; 2.F 2.A- 2.B-	.
==	==
*-	*-
